assets/icons/disk.svg

<svg height="24" width="24" xmlns="http://www.w3.org/2000/svg"><path style="fill:gray;stroke-width:.5;stroke-linecap:round;stroke-linejoin:round;fill-opacity:1" d="M12 2A10 10 0 0 0 2 12a10 10 0 0 0 10 10 10 10 0 0 0 10-10A10 10 0 0 0 12 2zm0 1a9 9 0 0 1 9 9 9 9 0 0 1-9 9 9 9 0 0 1-9-9 9 9 0 0 1 9-9zm0 5a4 4 0 0 0-4 4 4 4 0 0 0 4 4 4 4 0 0 0 4-4 4 4 0 0 0-4-4zm0 2a2 2 0 0 1 2 2 2 2 0 0 1-2 2 2 2 0 0 1-2-2 2 2 0 0 1 2-2z"/></svg>

<?xml version="1.0" encoding="UTF-8" standalone="no"?>
<svg viewBox="0 0 24 24" height="24" width="24" version="1.1" id="svg8" sodipodi:docname="optical.svg" inkscape:version="1.1 (ce6663b3b7, 2021-05-25)"
   xmlns:inkscape="http://www.inkscape.org/namespaces/inkscape"
   xmlns:sodipodi="http://sodipodi.sourceforge.net/DTD/sodipodi-0.dtd"
   xmlns="http://www.w3.org/2000/svg"
   xmlns:svg="http://www.w3.org/2000/svg">
   <defs id="defs12" />
   <sodipodi:namedview id="namedview10" pagecolor="#ffffff" bordercolor="#666666" borderopacity="1.0" inkscape:pageshadow="2" inkscape:pageopacity="0.0" inkscape:pagecheckerboard="0" showgrid="true" width="24px" inkscape:zoom="7" inkscape:cx="8.2142857" inkscape:cy="15.857143" inkscape:window-width="1920" inkscape:window-height="1043" inkscape:window-x="1920" inkscape:window-y="0" inkscape:window-maximized="1" inkscape:current-layer="svg8">
      <inkscape:grid type="xygrid" id="grid823" />
   </sodipodi:namedview>
   <path id="path893" style="fill:#808080;fill-rule:evenodd;stroke-width:0.5;stroke-linecap:round;stroke-linejoin:round;fill-opacity:1" d="M 12 2 A 10 10 0 0 0 2 12 A 10 10 0 0 0 12 22 A 10 10 0 0 0 22 12 A 10 10 0 0 0 12 2 z M 12 3 A 9 9 0 0 1 21 12 A 9 9 0 0 1 12 21 A 9 9 0 0 1 3 12 A 9 9 0 0 1 12 3 z M 12 8 A 4 4 0 0 0 8 12 A 4 4 0 0 0 12 16 A 4 4 0 0 0 16 12 A 4 4 0 0 0 12 8 z M 12 10 A 2 2 0 0 1 14 12 A 2 2 0 0 1 12 14 A 2 2 0 0 1 10 12 A 2 2 0 0 1 12 10 z " />
</svg>
